images/ui/default.svg

<svg height="300" width="300" fill="currentColor" xmlns="http://www.w3.org/2000/svg" viewBox="0 0 13 13">
    <path fill-rule="evenodd" d="M6.5 8.667c-1.197 0-2.167-.97-2.167-2.167 0-1.197.97-2.166 2.167-2.166 1.197 0 2.167.969 2.167 2.166S7.697 8.667 6.5 8.667m5.85-3.257l-1.004-.205c-.096-.019-.171-.091-.2-.184-.083-.262-.189-.516-.317-.759-.046-.087-.043-.191.011-.273l.566-.855c.213-.322.17-.75-.103-1.023l-.414-.414c-.273-.273-.7-.316-1.022-.103l-.856.567c-.082.053-.186.056-.273.01-.243-.128-.496-.233-.759-.316-.093-.03-.164-.105-.183-.201L7.59.651C7.513.272 7.181 0 6.794 0h-.588c-.387 0-.719.272-.796.651l-.206 1.003c-.019.096-.09.171-.183.201-.263.083-.516.188-.759.316-.087.046-.191.043-.273-.01l-.856-.567c-.322-.213-.749-.17-1.022.103l-.414.414c-.273.273-.316.701-.103 1.023l.566.855c.054.082.057.186.011.273-.128.243-.234.497-.317.759-.029.093-.104.165-.2.184L.65 5.41c-.378.077-.65.41-.65.796v.588c0 .387.272.72.65.797l1.004.205c.096.019.171.09.2.183.083.263.189.517.317.759.046.088.043.191-.011.273l-.566.856c-.213.322-.17.749.103 1.022l.414.414c.273.273.7.316 1.022.103l.856-.566c.082-.054.186-.056.273-.011.243.129.496.234.759.317.093.029.164.104.183.2l.206 1.004c.077.379.409.65.796.65h.588c.387 0 .719-.271.796-.65l.206-1.004c.019-.096.09-.171.183-.2.263-.083.516-.188.759-.317.087-.045.191-.043.273.011l.856.566c.322.213.749.17 1.022-.103l.414-.414c.273-.273.316-.7.103-1.022l-.566-.856c-.054-.082-.057-.185-.011-.273.128-.242.234-.496.317-.759.029-.093.104-.164.2-.183l1.004-.205c.378-.077.65-.41.65-.797v-.588c0-.386-.272-.719-.65-.796"/>
</svg>

<svg height='300px' width='300px'  fill="#ffffff" xmlns="http://www.w3.org/2000/svg" viewBox="0 0 13 13" x="0px" y="0px"><path fill-rule="evenodd" d="M6.5,8.667 C5.303,8.667 4.333,7.697 4.333,6.5 C4.333,5.303 5.303,4.334 6.5,4.334 C7.697,4.334 8.667,5.303 8.667,6.5 C8.667,7.697 7.697,8.667 6.5,8.667 M12.35,5.41 L11.346,5.205 C11.25,5.186 11.175,5.114 11.146,5.021 C11.063,4.759 10.957,4.505 10.829,4.262 C10.783,4.175 10.786,4.071 10.84,3.989 L11.406,3.134 C11.619,2.812 11.576,2.384 11.303,2.111 L10.889,1.697 C10.616,1.424 10.189,1.381 9.867,1.594 L9.011,2.161 C8.929,2.214 8.825,2.217 8.738,2.171 C8.495,2.043 8.242,1.938 7.979,1.855 C7.886,1.825 7.815,1.75 7.796,1.654 L7.59,0.651 C7.513,0.272 7.181,0 6.794,0 L6.206,0 C5.819,0 5.487,0.272 5.41,0.651 L5.204,1.654 C5.185,1.75 5.114,1.825 5.021,1.855 C4.758,1.938 4.505,2.043 4.262,2.171 C4.175,2.217 4.071,2.214 3.989,2.161 L3.133,1.594 C2.811,1.381 2.384,1.424 2.111,1.697 L1.697,2.111 C1.424,2.384 1.381,2.812 1.594,3.134 L2.16,3.989 C2.214,4.071 2.217,4.175 2.171,4.262 C2.043,4.505 1.937,4.759 1.854,5.021 C1.825,5.114 1.75,5.186 1.654,5.205 L0.65,5.41 C0.272,5.487 0,5.82 0,6.206 L0,6.794 C0,7.181 0.272,7.514 0.65,7.591 L1.654,7.796 C1.75,7.815 1.825,7.886 1.854,7.979 C1.937,8.242 2.043,8.496 2.171,8.738 C2.217,8.826 2.214,8.929 2.16,9.011 L1.594,9.867 C1.381,10.189 1.424,10.616 1.697,10.889 L2.111,11.303 C2.384,11.576 2.811,11.619 3.133,11.406 L3.989,10.84 C4.071,10.786 4.175,10.784 4.262,10.829 C4.505,10.958 4.758,11.063 5.021,11.146 C5.114,11.175 5.185,11.25 5.204,11.346 L5.41,12.35 C5.487,12.729 5.819,13 6.206,13 L6.794,13 C7.181,13 7.513,12.729 7.59,12.35 L7.796,11.346 C7.815,11.25 7.886,11.175 7.979,11.146 C8.242,11.063 8.495,10.958 8.738,10.829 C8.825,10.784 8.929,10.786 9.011,10.84 L9.867,11.406 C10.189,11.619 10.616,11.576 10.889,11.303 L11.303,10.889 C11.576,10.616 11.619,10.189 11.406,9.867 L10.84,9.011 C10.786,8.929 10.783,8.826 10.829,8.738 C10.957,8.496 11.063,8.242 11.146,7.979 C11.175,7.886 11.25,7.815 11.346,7.796 L12.35,7.591 C12.728,7.514 13,7.181 13,6.794 L13,6.206 C13,5.82 12.728,5.487 12.35,5.41"></path></svg>
